public/images/jeux/hangman/logo_hangman.svg

<svg xmlns="http://www.w3.org/2000/svg" width="500" height="345" fill="none"><path fill="#341A1A" d="M0 0h500v345H0z"/><path fill="#fff" d="M108.64 161.4c0 1.687-.147 3.153-.44 4.4h3.3c.293 1.173.44 2.64.44 4.4 0 1.687-.147 3.153-.44 4.4h-3.3c.293 1.173.44 2.64.44 4.4 0 1.687-.147 3.153-.44 4.4.293 1.173.44 2.64.44 4.4 0 1.687-.147 3.153-.44 4.4.293 1.173.44 2.64.44 4.4 0 1.687-.147 3.153-.44 4.4h-8.8c-.293-1.247-.44-2.713-.44-4.4 0-1.76.147-3.227.44-4.4-.293-1.247-.44-2.713-.44-4.4 0-1.76.147-3.227.44-4.4-.293-1.247-.44-2.713-.44-4.4 0-1.76.147-3.227.44-4.4-.293-1.247-.44-2.713-.44-4.4 0-1.76.147-3.227.44-4.4-.293-1.247-.44-2.713-.44-4.4 0-1.76.147-3.227.44-4.4-.293-1.247-.44-2.713-.44-4.4 0-1.76.147-3.227.44-4.4-.293-1.247-.44-2.713-.44-4.4 0-1.76.147-3.227.44-4.4h8.8c.293 1.173.44 2.64.44 4.4 0 1.687-.147 3.153-.44 4.4.293 1.173.44 2.64.44 4.4 0 1.687-.147 3.153-.44 4.4.293 1.173.44 2.64.44 4.4Zm25.96 13.2c.293 1.173.44 2.64.44 4.4 0 1.687-.147 3.153-.44 4.4.293 1.173.44 2.64.44 4.4 0 1.687-.147 3.153-.44 4.4.293 1.173.44 2.64.44 4.4 0 1.687-.147 3.153-.44 4.4h-8.8c-.293-1.247-.44-2.713-.44-4.4 0-1.76.147-3.227.44-4.4-.293-1.247-.44-2.713-.44-4.4 0-1.76.147-3.227.44-4.4-.293-1.247-.44-2.713-.44-4.4 0-1.76.147-3.227.44-4.4-.293-1.247-.44-2.713-.44-4.4 0-1.76.147-3.227.44-4.4h-14.3c-.293-1.247-.44-2.713-.44-4.4 0-1.76.147-3.227.44-4.4h17.6c.293 1.173.44 2.64.44 4.4 0 1.687-.147 3.153-.44 4.4h5.5c.293 1.173.44 2.64.44 4.4 0 1.687-.147 3.153-.44 4.4Zm44.043 17.6c.293 1.173.44 2.64.44 4.4 0 1.687-.147 3.153-.44 4.4h-8.8c-.293-1.247-.44-2.713-.44-4.4 0-1.76.147-3.227.44-4.4h-4.4c-.293-1.247-.44-2.713-.44-4.4 0-1.76.147-3.227.44-4.4h-13.2c.293 1.173.44 2.64.44 4.4 0 1.687-.147 3.153-.44 4.4h13.2c.293 1.173.44 2.64.44 4.4 0 1.687-.147 3.153-.44 4.4h-17.6c-.293-1.247-.44-2.713-.44-4.4 0-1.76.147-3.227.44-4.4h-4.4c-.293-1.247-.44-2.713-.44-4.4 0-1.76.147-3.227.44-4.4h4.4c-.293-1.247-.44-2.713-.44-4.4 0-1.76.147-3.227.44-4.4h17.6c-.293-1.247-.44-2.713-.44-4.4 0-1.76.147-3.227.44-4.4h-15.4c-.293-1.247-.44-2.713-.44-4.4 0-1.76.147-3.227.44-4.4h19.8c.293 1.173.44 2.64.44 4.4 0 1.687-.147 3.153-.44 4.4h4.4c.293 1.173.44 2.64.44 4.4 0 1.687-.147 3.153-.44 4.4.293 1.173.44 2.64.44 4.4 0 1.687-.147 3.153-.44 4.4.293 1.173.44 2.64.44 4.4 0 1.687-.147 3.153-.44 4.4h4.4Zm16.983-30.8c0 1.687-.147 3.153-.44 4.4h4.4c.293 1.173.44 2.64.44 4.4 0 1.687-.147 3.153-.44 4.4h-3.3c.293 1.173.44 2.64.44 4.4 0 1.687-.147 3.153-.44 4.4.293 1.173.44 2.64.44 4.4 0 1.687-.147 3.153-.44 4.4.293 1.173.44 2.64.44 4.4 0 1.687-.147 3.153-.44 4.4h-8.8c-.293-1.247-.44-2.713-.44-4.4 0-1.76.147-3.227.44-4.4-.293-1.247-.44-2.713-.44-4.4 0-1.76.147-3.227.44-4.4-.293-1.247-.44-2.713-.44-4.4 0-1.76.147-3.227.44-4.4-.293-1.247-.44-2.713-.44-4.4 0-1.76.147-3.227.44-4.4-.293-1.247-.44-2.713-.44-4.4 0-1.76.147-3.227.44-4.4h7.7c.293 1.173.44 2.64.44 4.4Zm27.06 13.2c.293 1.173.44 2.64.44 4.4 0 1.687-.147 3.153-.44 4.4.293 1.173.44 2.64.44 4.4 0 1.687-.147 3.153-.44 4.4.293 1.173.44 2.64.44 4.4 0 1.687-.147 3.153-.44 4.4h-8.8c-.293-1.247-.44-2.713-.44-4.4 0-1.76.147-3.227.44-4.4-.293-1.247-.44-2.713-.44-4.4 0-1.76.147-3.227.44-4.4-.293-1.247-.44-2.713-.44-4.4 0-1.76.147-3.227.44-4.4-.293-1.247-.44-2.713-.44-4.4 0-1.76.147-3.227.44-4.4h-14.3c-.293-1.247-.44-2.713-.44-4.4 0-1.76.147-3.227.44-4.4h17.6c.293 1.173.44 2.64.44 4.4 0 1.687-.147 3.153-.44 4.4h5.5c.293 1.173.44 2.64.44 4.4 0 1.687-.147 3.153-.44 4.4Zm44.043-8.8c.293 1.173.44 2.64.44 4.4 0 1.687-.147 3.153-.44 4.4.293 1.173.44 2.64.44 4.4 0 1.687-.147 3.153-.44 4.4.293 1.173.44 2.64.44 4.4 0 1.687-.147 3.153-.44 4.4.293 1.173.44 2.64.44 4.4 0 1.687-.147 3.153-.44 4.4h-4.4c.293 1.173.44 2.64.44 4.4 0 1.687-.147 3.153-.44 4.4h-4.4c.293 1.173.44 2.64.44 4.4 0 1.687-.147 3.153-.44 4.4h-17.6c-.293-1.247-.44-2.713-.44-4.4 0-1.76.147-3.227.44-4.4h13.2c-.293-1.247-.44-2.713-.44-4.4 0-1.76.147-3.227.44-4.4h4.4c-.293-1.247-.44-2.713-.44-4.4 0-1.76.147-3.227.44-4.4h-4.4c-.293-1.247-.44-2.713-.44-4.4 0-1.76.147-3.227.44-4.4h4.4c-.293-1.247-.44-2.713-.44-4.4 0-1.76.147-3.227.44-4.4-.293-1.247-.44-2.713-.44-4.4 0-1.76.147-3.227.44-4.4h-14.3c.293 1.173.44 2.64.44 4.4 0 1.687-.147 3.153-.44 4.4h-3.3c.293 1.173.44 2.64.44 4.4 0 1.687-.147 3.153-.44 4.4h3.3c.293 1.173.44 2.64.44 4.4 0 1.687-.147 3.153-.44 4.4h9.9c.293 1.173.44 2.64.44 4.4 0 1.687-.147 3.153-.44 4.4h-13.2c-.293-1.247-.44-2.713-.44-4.4 0-1.76.147-3.227.44-4.4h-5.5c-.293-1.247-.44-2.713-.44-4.4 0-1.76.147-3.227.44-4.4h-3.3c-.293-1.247-.44-2.713-.44-4.4 0-1.76.147-3.227.44-4.4h3.3c-.293-1.247-.44-2.713-.44-4.4 0-1.76.147-3.227.44-4.4h5.5c-.293-1.247-.44-2.713-.44-4.4 0-1.76.147-3.227.44-4.4h26.4c.293 1.173.44 2.64.44 4.4 0 1.687-.147 3.153-.44 4.4Zm14.783-4.4c0 1.687-.147 3.153-.44 4.4h3.3c.293 1.173.44 2.64.44 4.4 0 1.687-.147 3.153-.44 4.4.293 1.173.44 2.64.44 4.4 0 1.687-.147 3.153-.44 4.4.293 1.173.44 2.64.44 4.4 0 1.687-.147 3.153-.44 4.4.293 1.173.44 2.64.44 4.4 0 1.687-.147 3.153-.44 4.4h-8.8c-.293-1.247-.44-2.713-.44-4.4 0-1.76.147-3.227.44-4.4-.293-1.247-.44-2.713-.44-4.4 0-1.76.147-3.227.44-4.4-.293-1.247-.44-2.713-.44-4.4 0-1.76.147-3.227.44-4.4-.293-1.247-.44-2.713-.44-4.4 0-1.76.147-3.227.44-4.4-.293-1.247-.44-2.713-.44-4.4 0-1.76.147-3.227.44-4.4h5.5c.293 1.173.44 2.64.44 4.4Zm12.1 0c0 1.687-.147 3.153-.44 4.4h3.3c.293 1.173.44 2.64.44 4.4 0 1.687-.147 3.153-.44 4.4.293 1.173.44 2.64.44 4.4 0 1.687-.147 3.153-.44 4.4.293 1.173.44 2.64.44 4.4 0 1.687-.147 3.153-.44 4.4.293 1.173.44 2.64.44 4.4 0 1.687-.147 3.153-.44 4.4h-6.6c-.293-1.247-.44-2.713-.44-4.4 0-1.76.147-3.227.44-4.4-.293-1.247-.44-2.713-.44-4.4 0-1.76.147-3.227.44-4.4-.293-1.247-.44-2.713-.44-4.4 0-1.76.147-3.227.44-4.4-.293-1.247-.44-2.713-.44-4.4 0-1.76.147-3.227.44-4.4h-5.5c-.293-1.247-.44-2.713-.44-4.4 0-1.76.147-3.227.44-4.4h8.8c.293 1.173.44 2.64.44 4.4Zm17.16 13.2c.293 1.173.44 2.64.44 4.4 0 1.687-.147 3.153-.44 4.4.293 1.173.44 2.64.44 4.4 0 1.687-.147 3.153-.44 4.4.293 1.173.44 2.64.44 4.4 0 1.687-.147 3.153-.44 4.4h-8.8c-.293-1.247-.44-2.713-.44-4.4 0-1.76.147-3.227.44-4.4-.293-1.247-.44-2.713-.44-4.4 0-1.76.147-3.227.44-4.4-.293-1.247-.44-2.713-.44-4.4 0-1.76.147-3.227.44-4.4-.293-1.247-.44-2.713-.44-4.4 0-1.76.147-3.227.44-4.4h-5.5c-.293-1.247-.44-2.713-.44-4.4 0-1.76.147-3.227.44-4.4h9.9c.293 1.173.44 2.64.44 4.4 0 1.687-.147 3.153-.44 4.4h4.4c.293 1.173.44 2.64.44 4.4 0 1.687-.147 3.153-.44 4.4Zm44.043 17.6c.293 1.173.44 2.64.44 4.4 0 1.687-.147 3.153-.44 4.4h-8.8c-.293-1.247-.44-2.713-.44-4.4 0-1.76.147-3.227.44-4.4h-4.4c-.293-1.247-.44-2.713-.44-4.4 0-1.76.147-3.227.44-4.4h-13.2c.293 1.173.44 2.64.44 4.4 0 1.687-.147 3.153-.44 4.4h13.2c.293 1.173.44 2.64.44 4.4 0 1.687-.147 3.153-.44 4.4h-17.6c-.293-1.247-.44-2.713-.44-4.4 0-1.76.147-3.227.44-4.4h-4.4c-.293-1.247-.44-2.713-.44-4.4 0-1.76.147-3.227.44-4.4h4.4c-.293-1.247-.44-2.713-.44-4.4 0-1.76.147-3.227.44-4.4h17.6c-.293-1.247-.44-2.713-.44-4.4 0-1.76.147-3.227.44-4.4h-15.4c-.293-1.247-.44-2.713-.44-4.4 0-1.76.147-3.227.44-4.4h19.8c.293 1.173.44 2.64.44 4.4 0 1.687-.147 3.153-.44 4.4h4.4c.293 1.173.44 2.64.44 4.4 0 1.687-.147 3.153-.44 4.4.293 1.173.44 2.64.44 4.4 0 1.687-.147 3.153-.44 4.4.293 1.173.44 2.64.44 4.4 0 1.687-.147 3.153-.44 4.4h4.4Zm16.983-30.8c0 1.687-.147 3.153-.44 4.4h4.4c.293 1.173.44 2.64.44 4.4 0 1.687-.147 3.153-.44 4.4h-3.3c.293 1.173.44 2.64.44 4.4 0 1.687-.147 3.153-.44 4.4.293 1.173.44 2.64.44 4.4 0 1.687-.147 3.153-.44 4.4.293 1.173.44 2.64.44 4.4 0 1.687-.147 3.153-.44 4.4h-8.8c-.294-1.247-.44-2.713-.44-4.4 0-1.76.146-3.227.44-4.4-.294-1.247-.44-2.713-.44-4.4 0-1.76.146-3.227.44-4.4-.294-1.247-.44-2.713-.44-4.4 0-1.76.146-3.227.44-4.4-.294-1.247-.44-2.713-.44-4.4 0-1.76.146-3.227.44-4.4-.294-1.247-.44-2.713-.44-4.4 0-1.76.146-3.227.44-4.4h7.7c.293 1.173.44 2.64.44 4.4Zm27.06 13.2c.293 1.173.44 2.64.44 4.4 0 1.687-.147 3.153-.44 4.4.293 1.173.44 2.64.44 4.4 0 1.687-.147 3.153-.44 4.4.293 1.173.44 2.64.44 4.4 0 1.687-.147 3.153-.44 4.4h-8.8c-.294-1.247-.44-2.713-.44-4.4 0-1.76.146-3.227.44-4.4-.294-1.247-.44-2.713-.44-4.4 0-1.76.146-3.227.44-4.4-.294-1.247-.44-2.713-.44-4.4 0-1.76.146-3.227.44-4.4-.294-1.247-.44-2.713-.44-4.4 0-1.76.146-3.227.44-4.4h-14.3c-.294-1.247-.44-2.713-.44-4.4 0-1.76.146-3.227.44-4.4h17.6c.293 1.173.44 2.64.44 4.4 0 1.687-.147 3.153-.44 4.4h5.5c.293 1.173.44 2.64.44 4.4 0 1.687-.147 3.153-.44 4.4Z"/></svg>

<svg width="500" height="345" viewBox="0 0 500 345" fill="none" xmlns="http://www.w3.org/2000/svg">
<rect width="500" height="345" fill="#341A1A"/>
<path d="M108.64 161.4C108.64 163.087 108.493 164.553 108.2 165.8H111.5C111.793 166.973 111.94 168.44 111.94 170.2C111.94 171.887 111.793 173.353 111.5 174.6H108.2C108.493 175.773 108.64 177.24 108.64 179C108.64 180.687 108.493 182.153 108.2 183.4C108.493 184.573 108.64 186.04 108.64 187.8C108.64 189.487 108.493 190.953 108.2 192.2C108.493 193.373 108.64 194.84 108.64 196.6C108.64 198.287 108.493 199.753 108.2 201H99.4C99.1067 199.753 98.96 198.287 98.96 196.6C98.96 194.84 99.1067 193.373 99.4 192.2C99.1067 190.953 98.96 189.487 98.96 187.8C98.96 186.04 99.1067 184.573 99.4 183.4C99.1067 182.153 98.96 180.687 98.96 179C98.96 177.24 99.1067 175.773 99.4 174.6C99.1067 173.353 98.96 171.887 98.96 170.2C98.96 168.44 99.1067 166.973 99.4 165.8C99.1067 164.553 98.96 163.087 98.96 161.4C98.96 159.64 99.1067 158.173 99.4 157C99.1067 155.753 98.96 154.287 98.96 152.6C98.96 150.84 99.1067 149.373 99.4 148.2C99.1067 146.953 98.96 145.487 98.96 143.8C98.96 142.04 99.1067 140.573 99.4 139.4H108.2C108.493 140.573 108.64 142.04 108.64 143.8C108.64 145.487 108.493 146.953 108.2 148.2C108.493 149.373 108.64 150.84 108.64 152.6C108.64 154.287 108.493 155.753 108.2 157C108.493 158.173 108.64 159.64 108.64 161.4ZM134.6 174.6C134.893 175.773 135.04 177.24 135.04 179C135.04 180.687 134.893 182.153 134.6 183.4C134.893 184.573 135.04 186.04 135.04 187.8C135.04 189.487 134.893 190.953 134.6 192.2C134.893 193.373 135.04 194.84 135.04 196.6C135.04 198.287 134.893 199.753 134.6 201H125.8C125.507 199.753 125.36 198.287 125.36 196.6C125.36 194.84 125.507 193.373 125.8 192.2C125.507 190.953 125.36 189.487 125.36 187.8C125.36 186.04 125.507 184.573 125.8 183.4C125.507 182.153 125.36 180.687 125.36 179C125.36 177.24 125.507 175.773 125.8 174.6C125.507 173.353 125.36 171.887 125.36 170.2C125.36 168.44 125.507 166.973 125.8 165.8H111.5C111.207 164.553 111.06 163.087 111.06 161.4C111.06 159.64 111.207 158.173 111.5 157H129.1C129.393 158.173 129.54 159.64 129.54 161.4C129.54 163.087 129.393 164.553 129.1 165.8H134.6C134.893 166.973 135.04 168.44 135.04 170.2C135.04 171.887 134.893 173.353 134.6 174.6ZM178.643 192.2C178.936 193.373 179.083 194.84 179.083 196.6C179.083 198.287 178.936 199.753 178.643 201H169.843C169.55 199.753 169.403 198.287 169.403 196.6C169.403 194.84 169.55 193.373 169.843 192.2H165.443C165.15 190.953 165.003 189.487 165.003 187.8C165.003 186.04 165.15 184.573 165.443 183.4H152.243C152.536 184.573 152.683 186.04 152.683 187.8C152.683 189.487 152.536 190.953 152.243 192.2H165.443C165.736 193.373 165.883 194.84 165.883 196.6C165.883 198.287 165.736 199.753 165.443 201H147.843C147.55 199.753 147.403 198.287 147.403 196.6C147.403 194.84 147.55 193.373 147.843 192.2H143.443C143.15 190.953 143.003 189.487 143.003 187.8C143.003 186.04 143.15 184.573 143.443 183.4H147.843C147.55 182.153 147.403 180.687 147.403 179C147.403 177.24 147.55 175.773 147.843 174.6H165.443C165.15 173.353 165.003 171.887 165.003 170.2C165.003 168.44 165.15 166.973 165.443 165.8H150.043C149.75 164.553 149.603 163.087 149.603 161.4C149.603 159.64 149.75 158.173 150.043 157H169.843C170.136 158.173 170.283 159.64 170.283 161.4C170.283 163.087 170.136 164.553 169.843 165.8H174.243C174.536 166.973 174.683 168.44 174.683 170.2C174.683 171.887 174.536 173.353 174.243 174.6C174.536 175.773 174.683 177.24 174.683 179C174.683 180.687 174.536 182.153 174.243 183.4C174.536 184.573 174.683 186.04 174.683 187.8C174.683 189.487 174.536 190.953 174.243 192.2H178.643ZM195.626 161.4C195.626 163.087 195.479 164.553 195.186 165.8H199.586C199.879 166.973 200.026 168.44 200.026 170.2C200.026 171.887 199.879 173.353 199.586 174.6H196.286C196.579 175.773 196.726 177.24 196.726 179C196.726 180.687 196.579 182.153 196.286 183.4C196.579 184.573 196.726 186.04 196.726 187.8C196.726 189.487 196.579 190.953 196.286 192.2C196.579 193.373 196.726 194.84 196.726 196.6C196.726 198.287 196.579 199.753 196.286 201H187.486C187.193 199.753 187.046 198.287 187.046 196.6C187.046 194.84 187.193 193.373 187.486 192.2C187.193 190.953 187.046 189.487 187.046 187.8C187.046 186.04 187.193 184.573 187.486 183.4C187.193 182.153 187.046 180.687 187.046 179C187.046 177.24 187.193 175.773 187.486 174.6C187.193 173.353 187.046 171.887 187.046 170.2C187.046 168.44 187.193 166.973 187.486 165.8C187.193 164.553 187.046 163.087 187.046 161.4C187.046 159.64 187.193 158.173 187.486 157H195.186C195.479 158.173 195.626 159.64 195.626 161.4ZM222.686 174.6C222.979 175.773 223.126 177.24 223.126 179C223.126 180.687 222.979 182.153 222.686 183.4C222.979 184.573 223.126 186.04 223.126 187.8C223.126 189.487 222.979 190.953 222.686 192.2C222.979 193.373 223.126 194.84 223.126 196.6C223.126 198.287 222.979 199.753 222.686 201H213.886C213.593 199.753 213.446 198.287 213.446 196.6C213.446 194.84 213.593 193.373 213.886 192.2C213.593 190.953 213.446 189.487 213.446 187.8C213.446 186.04 213.593 184.573 213.886 183.4C213.593 182.153 213.446 180.687 213.446 179C213.446 177.24 213.593 175.773 213.886 174.6C213.593 173.353 213.446 171.887 213.446 170.2C213.446 168.44 213.593 166.973 213.886 165.8H199.586C199.293 164.553 199.146 163.087 199.146 161.4C199.146 159.64 199.293 158.173 199.586 157H217.186C217.479 158.173 217.626 159.64 217.626 161.4C217.626 163.087 217.479 164.553 217.186 165.8H222.686C222.979 166.973 223.126 168.44 223.126 170.2C223.126 171.887 222.979 173.353 222.686 174.6ZM266.729 165.8C267.022 166.973 267.169 168.44 267.169 170.2C267.169 171.887 267.022 173.353 266.729 174.6C267.022 175.773 267.169 177.24 267.169 179C267.169 180.687 267.022 182.153 266.729 183.4C267.022 184.573 267.169 186.04 267.169 187.8C267.169 189.487 267.022 190.953 266.729 192.2C267.022 193.373 267.169 194.84 267.169 196.6C267.169 198.287 267.022 199.753 266.729 201H262.329C262.622 202.173 262.769 203.64 262.769 205.4C262.769 207.087 262.622 208.553 262.329 209.8H257.929C258.222 210.973 258.369 212.44 258.369 214.2C258.369 215.887 258.222 217.353 257.929 218.6H240.329C240.036 217.353 239.889 215.887 239.889 214.2C239.889 212.44 240.036 210.973 240.329 209.8H253.529C253.236 208.553 253.089 207.087 253.089 205.4C253.089 203.64 253.236 202.173 253.529 201H257.929C257.636 199.753 257.489 198.287 257.489 196.6C257.489 194.84 257.636 193.373 257.929 192.2H253.529C253.236 190.953 253.089 189.487 253.089 187.8C253.089 186.04 253.236 184.573 253.529 183.4H257.929C257.636 182.153 257.489 180.687 257.489 179C257.489 177.24 257.636 175.773 257.929 174.6C257.636 173.353 257.489 171.887 257.489 170.2C257.489 168.44 257.636 166.973 257.929 165.8H243.629C243.922 166.973 244.069 168.44 244.069 170.2C244.069 171.887 243.922 173.353 243.629 174.6H240.329C240.622 175.773 240.769 177.24 240.769 179C240.769 180.687 240.622 182.153 240.329 183.4H243.629C243.922 184.573 244.069 186.04 244.069 187.8C244.069 189.487 243.922 190.953 243.629 192.2H253.529C253.822 193.373 253.969 194.84 253.969 196.6C253.969 198.287 253.822 199.753 253.529 201H240.329C240.036 199.753 239.889 198.287 239.889 196.6C239.889 194.84 240.036 193.373 240.329 192.2H234.829C234.536 190.953 234.389 189.487 234.389 187.8C234.389 186.04 234.536 184.573 234.829 183.4H231.529C231.236 182.153 231.089 180.687 231.089 179C231.089 177.24 231.236 175.773 231.529 174.6H234.829C234.536 173.353 234.389 171.887 234.389 170.2C234.389 168.44 234.536 166.973 234.829 165.8H240.329C240.036 164.553 239.889 163.087 239.889 161.4C239.889 159.64 240.036 158.173 240.329 157H266.729C267.022 158.173 267.169 159.64 267.169 161.4C267.169 163.087 267.022 164.553 266.729 165.8ZM281.512 161.4C281.512 163.087 281.365 164.553 281.072 165.8H284.372C284.665 166.973 284.812 168.44 284.812 170.2C284.812 171.887 284.665 173.353 284.372 174.6C284.665 175.773 284.812 177.24 284.812 179C284.812 180.687 284.665 182.153 284.372 183.4C284.665 184.573 284.812 186.04 284.812 187.8C284.812 189.487 284.665 190.953 284.372 192.2C284.665 193.373 284.812 194.84 284.812 196.6C284.812 198.287 284.665 199.753 284.372 201H275.572C275.279 199.753 275.132 198.287 275.132 196.6C275.132 194.84 275.279 193.373 275.572 192.2C275.279 190.953 275.132 189.487 275.132 187.8C275.132 186.04 275.279 184.573 275.572 183.4C275.279 182.153 275.132 180.687 275.132 179C275.132 177.24 275.279 175.773 275.572 174.6C275.279 173.353 275.132 171.887 275.132 170.2C275.132 168.44 275.279 166.973 275.572 165.8C275.279 164.553 275.132 163.087 275.132 161.4C275.132 159.64 275.279 158.173 275.572 157H281.072C281.365 158.173 281.512 159.64 281.512 161.4ZM293.612 161.4C293.612 163.087 293.465 164.553 293.172 165.8H296.472C296.765 166.973 296.912 168.44 296.912 170.2C296.912 171.887 296.765 173.353 296.472 174.6C296.765 175.773 296.912 177.24 296.912 179C296.912 180.687 296.765 182.153 296.472 183.4C296.765 184.573 296.912 186.04 296.912 187.8C296.912 189.487 296.765 190.953 296.472 192.2C296.765 193.373 296.912 194.84 296.912 196.6C296.912 198.287 296.765 199.753 296.472 201H289.872C289.579 199.753 289.432 198.287 289.432 196.6C289.432 194.84 289.579 193.373 289.872 192.2C289.579 190.953 289.432 189.487 289.432 187.8C289.432 186.04 289.579 184.573 289.872 183.4C289.579 182.153 289.432 180.687 289.432 179C289.432 177.24 289.579 175.773 289.872 174.6C289.579 173.353 289.432 171.887 289.432 170.2C289.432 168.44 289.579 166.973 289.872 165.8H284.372C284.079 164.553 283.932 163.087 283.932 161.4C283.932 159.64 284.079 158.173 284.372 157H293.172C293.465 158.173 293.612 159.64 293.612 161.4ZM310.772 174.6C311.065 175.773 311.212 177.24 311.212 179C311.212 180.687 311.065 182.153 310.772 183.4C311.065 184.573 311.212 186.04 311.212 187.8C311.212 189.487 311.065 190.953 310.772 192.2C311.065 193.373 311.212 194.84 311.212 196.6C311.212 198.287 311.065 199.753 310.772 201H301.972C301.679 199.753 301.532 198.287 301.532 196.6C301.532 194.84 301.679 193.373 301.972 192.2C301.679 190.953 301.532 189.487 301.532 187.8C301.532 186.04 301.679 184.573 301.972 183.4C301.679 182.153 301.532 180.687 301.532 179C301.532 177.24 301.679 175.773 301.972 174.6C301.679 173.353 301.532 171.887 301.532 170.2C301.532 168.44 301.679 166.973 301.972 165.8H296.472C296.179 164.553 296.032 163.087 296.032 161.4C296.032 159.64 296.179 158.173 296.472 157H306.372C306.665 158.173 306.812 159.64 306.812 161.4C306.812 163.087 306.665 164.553 306.372 165.8H310.772C311.065 166.973 311.212 168.44 311.212 170.2C311.212 171.887 311.065 173.353 310.772 174.6ZM354.815 192.2C355.108 193.373 355.255 194.84 355.255 196.6C355.255 198.287 355.108 199.753 354.815 201H346.015C345.722 199.753 345.575 198.287 345.575 196.6C345.575 194.84 345.722 193.373 346.015 192.2H341.615C341.322 190.953 341.175 189.487 341.175 187.8C341.175 186.04 341.322 184.573 341.615 183.4H328.415C328.708 184.573 328.855 186.04 328.855 187.8C328.855 189.487 328.708 190.953 328.415 192.2H341.615C341.908 193.373 342.055 194.84 342.055 196.6C342.055 198.287 341.908 199.753 341.615 201H324.015C323.722 199.753 323.575 198.287 323.575 196.6C323.575 194.84 323.722 193.373 324.015 192.2H319.615C319.322 190.953 319.175 189.487 319.175 187.8C319.175 186.04 319.322 184.573 319.615 183.4H324.015C323.722 182.153 323.575 180.687 323.575 179C323.575 177.24 323.722 175.773 324.015 174.6H341.615C341.322 173.353 341.175 171.887 341.175 170.2C341.175 168.44 341.322 166.973 341.615 165.8H326.215C325.922 164.553 325.775 163.087 325.775 161.4C325.775 159.64 325.922 158.173 326.215 157H346.015C346.308 158.173 346.455 159.64 346.455 161.4C346.455 163.087 346.308 164.553 346.015 165.8H350.415C350.708 166.973 350.855 168.44 350.855 170.2C350.855 171.887 350.708 173.353 350.415 174.6C350.708 175.773 350.855 177.24 350.855 179C350.855 180.687 350.708 182.153 350.415 183.4C350.708 184.573 350.855 186.04 350.855 187.8C350.855 189.487 350.708 190.953 350.415 192.2H354.815ZM371.798 161.4C371.798 163.087 371.651 164.553 371.358 165.8H375.758C376.051 166.973 376.198 168.44 376.198 170.2C376.198 171.887 376.051 173.353 375.758 174.6H372.458C372.751 175.773 372.898 177.24 372.898 179C372.898 180.687 372.751 182.153 372.458 183.4C372.751 184.573 372.898 186.04 372.898 187.8C372.898 189.487 372.751 190.953 372.458 192.2C372.751 193.373 372.898 194.84 372.898 196.6C372.898 198.287 372.751 199.753 372.458 201H363.658C363.364 199.753 363.218 198.287 363.218 196.6C363.218 194.84 363.364 193.373 363.658 192.2C363.364 190.953 363.218 189.487 363.218 187.8C363.218 186.04 363.364 184.573 363.658 183.4C363.364 182.153 363.218 180.687 363.218 179C363.218 177.24 363.364 175.773 363.658 174.6C363.364 173.353 363.218 171.887 363.218 170.2C363.218 168.44 363.364 166.973 363.658 165.8C363.364 164.553 363.218 163.087 363.218 161.4C363.218 159.64 363.364 158.173 363.658 157H371.358C371.651 158.173 371.798 159.64 371.798 161.4ZM398.858 174.6C399.151 175.773 399.298 177.24 399.298 179C399.298 180.687 399.151 182.153 398.858 183.4C399.151 184.573 399.298 186.04 399.298 187.8C399.298 189.487 399.151 190.953 398.858 192.2C399.151 193.373 399.298 194.84 399.298 196.6C399.298 198.287 399.151 199.753 398.858 201H390.058C389.764 199.753 389.618 198.287 389.618 196.6C389.618 194.84 389.764 193.373 390.058 192.2C389.764 190.953 389.618 189.487 389.618 187.8C389.618 186.04 389.764 184.573 390.058 183.4C389.764 182.153 389.618 180.687 389.618 179C389.618 177.24 389.764 175.773 390.058 174.6C389.764 173.353 389.618 171.887 389.618 170.2C389.618 168.44 389.764 166.973 390.058 165.8H375.758C375.464 164.553 375.318 163.087 375.318 161.4C375.318 159.64 375.464 158.173 375.758 157H393.358C393.651 158.173 393.798 159.64 393.798 161.4C393.798 163.087 393.651 164.553 393.358 165.8H398.858C399.151 166.973 399.298 168.44 399.298 170.2C399.298 171.887 399.151 173.353 398.858 174.6Z" fill="white"/>
</svg>
